brandFactory_export/3.Masa/Bicicleta_Bike_3Masa.svg

<?xml version="1.0" encoding="UTF-8"?>
<svg width="24px" height="24px" viewBox="0 0 24 24" version="1.1" xmlns="http://www.w3.org/2000/svg" xmlns:xlink="http://www.w3.org/1999/xlink">
    <title>3.Masa/Bicicleta_Bike_3Masa</title>
    <g id="Symbols" stroke="none" stroke-width="1" fill="none" fill-rule="evenodd">
        <g id="3.Masa/Bicicleta_Bike_3Masa" fill="#5CB615" fill-rule="nonzero">
            <path d="M5.97310924,11.6 L7.48235294,8.52436975 L6.45378151,6.33277311 L5.4789916,6.33277311 C5.12605042,6.33277311 4.84369748,6.03697479 4.84369748,5.67058824 C4.84369748,5.30420168 5.12941176,5.00840336 5.4789916,5.00840336 L8.76302521,5.00840336 C9.11596639,5.00840336 9.39831933,5.30420168 9.39831933,5.67058824 C9.39831933,6.03697479 9.11260504,6.33277311 8.76302521,6.33277311 L7.86890756,6.33277311 L8.59159664,7.87226891 L14.7798319,7.87226891 L14.7798319,4.79327731 C14.7798319,4.48067227 14.9882353,4.21176471 15.2806723,4.14453782 C15.4655462,4.10084034 17.1260504,3.74789916 18.1042017,4.56806723 C18.410084,4.82352941 18.7764706,5.30420168 18.7764706,6.13445378 C18.7764706,6.50084034 18.4907563,6.79663866 18.1411765,6.79663866 C17.7882353,6.79663866 17.502521,6.50084034 17.502521,6.13445378 C17.502521,5.80840336 17.3983193,5.68067227 17.3042017,5.60336134 C17.0285714,5.37142857 16.487395,5.33781513 16.0537815,5.37142857 L16.0537815,8.37647059 L17.6571429,11.6168067 C17.6571429,11.6168067 17.2369748,11.7781513 17.0857143,11.8420168 C16.9411765,11.902521 16.4739496,12.1176471 16.4739496,12.1176471 L15.4151261,9.97983193 L13.0521008,14.7260504 C13.4184874,15.0689076 13.6268908,15.5831933 13.6268908,16.2420168 C13.6268908,17.1193277 13.2638655,17.7411765 12.6352941,18.0336134 L13.0151261,18.8235294 L13.5932773,18.8235294 C13.9462185,18.8235294 14.2285714,19.1226891 14.2285714,19.4890756 C14.2285714,19.8554622 13.9428571,20.1512605 13.5932773,20.1512605 L12.6218487,20.1512605 C12.3798319,20.1512605 12.1579832,20.010084 12.0537815,19.7848739 L11.287395,18.1882353 C10.5042017,18.0537815 10,17.5327731 9.85546218,16.7294118 L8.96470588,16.7294118 C8.96470588,16.7294118 8.98151261,16.4773109 8.98151261,16.0672269 C8.97815126,15.6336134 8.96470588,15.4016807 8.96470588,15.4016807 L9.94621849,15.4016807 C10.0436975,15.1260504 10.1983193,14.9008403 10.3932773,14.7193277 L8.17815126,10.010084 L7.16302521,12.0840336 C7.16302521,12.0840336 6.69579832,11.8689076 6.53781513,11.805042 C6.40336134,11.7512605 6,11.610084 5.97310924,11.6 L3.93277311,15.7680672 C3.83193277,15.9731092 3.84201681,16.2184874 3.95630252,16.4168067 C4.07058824,16.6117647 4.2789916,16.7327731 4.50084034,16.7327731 L8.96806723,16.7327731 C8.7394958,19.297479 7.15966387,20.7663866 4.5210084,20.7663866 C1.66722689,20.7663866 0.0302521008,19.0621849 0.0302521008,16.087395 C0.0302521008,13.112605 1.66722689,11.4084034 4.5210084,11.4084034 C5.05546218,11.4084034 5.52941176,11.4857143 5.97310924,11.6 Z M7.16638655,12.087395 C8.20840336,12.7462185 8.82352941,13.8857143 8.96806723,15.405042 L5.54285714,15.405042 L7.16638655,12.087395 Z M11.7210084,14.2588235 C11.7647059,14.2588235 11.805042,14.2655462 11.8487395,14.2689076 L14.3697479,9.2 L9.21344538,9.2 L11.5966387,14.2689076 C11.6403361,14.2655462 11.6773109,14.2588235 11.7210084,14.2588235 L11.7210084,14.2588235 Z M11.7210084,15.5865546 C11.2369748,15.5865546 11.0890756,15.7411765 11.0890756,16.2453782 C11.0890756,16.7462185 11.2436975,16.9042017 11.7210084,16.9042017 C12.2084034,16.9042017 12.3529412,16.7495798 12.3529412,16.2453782 C12.3529412,15.7378151 12.2084034,15.5865546 11.7210084,15.5865546 Z M19.1663866,11.4084034 C22.0201681,11.4084034 23.6571429,13.1159664 23.6571429,16.087395 C23.6571429,19.0621849 22.0201681,20.7663866 19.1663866,20.7663866 C16.312605,20.7663866 14.6756303,19.0621849 14.6756303,16.087395 C14.6756303,14.2386555 15.307563,12.8806723 16.4739496,12.1176471 L18.5781513,16.3731092 C18.692437,16.6016807 18.9142857,16.7327731 19.1462185,16.7327731 C19.2436975,16.7327731 19.3445378,16.7092437 19.4386555,16.6588235 C19.7512605,16.4907563 19.8756303,16.0907563 19.7142857,15.7647059 L17.6638655,11.6134454 C18.1176471,11.492437 18.6117647,11.4084034 19.1663866,11.4084034 L19.1663866,11.4084034 Z" id="Bicicleta_Bike_3Masa"></path>
        </g>
    </g>
</svg>

<svg width="24" height="24" viewBox="0 0 24 24" xmlns="http://www.w3.org/2000/svg"><path d="M5.973 11.6l1.51-3.076-1.03-2.191H5.48a.647.647 0 01-.635-.662.65.65 0 01.635-.663h3.284c.353 0 .635.296.635.663a.65.65 0 01-.635.662h-.894l.723 1.54h6.188v-3.08c0-.312.208-.581.5-.648.186-.044 1.846-.397 2.824.423.306.256.672.736.672 1.566a.65.65 0 01-.635.663.65.65 0 01-.638-.663c0-.326-.105-.453-.199-.53-.275-.233-.817-.266-1.25-.233v3.005l1.603 3.24s-.42.162-.571.226c-.145.06-.612.276-.612.276L15.415 9.98l-2.363 4.746c.366.343.575.857.575 1.516 0 .877-.363 1.5-.992 1.792l.38.79h.578c.353 0 .636.299.636.665a.65.65 0 01-.636.662h-.971a.627.627 0 01-.568-.366l-.767-1.597c-.783-.134-1.287-.655-1.432-1.459h-.89s.017-.252.017-.662a14.832 14.832 0 00-.017-.665h.981c.098-.276.252-.501.447-.683L8.178 10.01l-1.015 2.074s-.467-.215-.625-.279c-.135-.054-.538-.195-.565-.205l-2.04 4.168c-.101.205-.091.45.023.649a.635.635 0 00.545.316h4.467c-.229 2.564-1.808 4.033-4.447 4.033-2.854 0-4.49-1.704-4.49-4.679 0-2.974 1.636-4.679 4.49-4.679.534 0 1.008.078 1.452.192zm1.193.487c1.042.66 1.658 1.799 1.802 3.318H5.543l1.623-3.318zm4.555 2.172c.044 0 .084.007.128.01l2.52-5.069H9.214l2.384 5.069c.043-.003.08-.01.124-.01zm0 1.328c-.484 0-.632.154-.632.658 0 .501.155.66.632.66.487 0 .632-.155.632-.66 0-.507-.145-.658-.632-.658zm7.445-4.179c2.854 0 4.491 1.708 4.491 4.68 0 2.974-1.637 4.678-4.49 4.678-2.854 0-4.491-1.704-4.491-4.679 0-1.848.632-3.206 1.798-3.97l2.104 4.256c.114.229.336.36.568.36a.62.62 0 00.293-.074.678.678 0 00.275-.894l-2.05-4.152a5.756 5.756 0 011.502-.205z" fill="#5CB615" fill-rule="nonzero"/></svg>
